**kern	**silbe	**kern	**silbe
*ICvox	*	*ICvox	*
=1	=1	=1	=1
*G:	*	*G:	*
*M4/4	*	*M4/4	*
*clefG2	*	*clefG2	*
1r	.	1r	.
=2	=2	=2	=2
1r	.	1r	.
=3	=3	=3	=3
1r	.	1r	.
=4	=4	=4	=4
1r	.	1r	.
=5	=5	=5	=5
8d	Cold	1r	.
8a	late	.	.
8.a	night	.	.
16d	so	.	.
8d	long	.	.
16g	a-	.	.
8.g	-go	.	.
16r	.	.	.
16c	when	.	.
=6	=6	=6	=6
8d	I	1r	.
16f	was	.	.
8f	not	.	.
8.f	so	.	.
8.d	strong	.	.
16G	you	.	.
8G	know	.	.
8r	.	.	.
=7	=7	=7	=7
16c	Pre-	1r	.
16c	-tty	.	.
8c	man	.	.
8c	came	.	.
4d	to	.	.
8c	me	.	.
8r	.	.	.
16c	Ne-	.	.
16c	-ver	.	.
=8	=8	=8	=8
8a	seen	1r	.
8g	eyes	.	.
8f	so	.	.
[4c	blue	.	.
16c]	_	.	.
16c	You	.	.
16c	know	.	.
8.c	I	.	.
=9	=9	=9	=9
8d	Could	1r	.
8a	not	.	.
8a	run	.	.
16d	a-	.	.
8d	-way	.	.
16g	it	.	.
4g	seemed	.	.
16r	.	.	.
16c	We'd	.	.
=10	=10	=10	=10
8d	seen	1r	.
8f	each-	.	.
16f	-o-	.	.
8d	-ther	.	.
16d	in	.	.
8G	a	.	.
8G	dream	.	.
4r	.	.	.
=11	=11	=11	=11
8c	Seemed	1r	.
8c	like	.	.
8c	he	.	.
4d	knew	.	.
8c	me	.	.
8r	.	.	.
8c	he	.	.
=12	=12	=12	=12
8a	looked	1r	.
8g	right	.	.
8r	.	.	.
4f	through	.	.
8g	me	.	.
4a	_	.	.
=13	=13	=13	=13
4r	.	1r	.
16d	Yeah	.	.
8c#	_	.	.
8.d	_	.	.
8r	.	.	.
4r	.	.	.
=14	=14	=14	=14
1r	.	1r	.
=15	=15	=15	=15
8cc	Come	1r	.
8cc	on	.	.
8dd	_	.	.
4a	home	.	.
16a	girl	.	.
16g	_	.	.
8f	_	.	.
8g	he	.	.
=16	=16	=16	=16
8d	said	1r	.
16d	with	.	.
8.c	a	.	.
4.d	smile	.	.
4r	.	.	.
=17	=17	=17	=17
16cc	You	1r	.
8.cc	don't	.	.
8cc	have	.	.
16dd	to	.	.
8.a	love	.	.
8g	me	.	.
8f	yet	.	.
[8g	let's	.	.
=18	=18	=18	=18
16g]	_	1r	.
16c	get	.	.
16d	high	.	.
8.c	a	.	.
16d	while	.	.
8.f	_	.	.
8r	.	.	.
8r	.	.	.
8c	But	.	.
=19	=19	=19	=19
16cc	try	1r	.
8b-	to	.	.
16a	un-	.	.
8g	-der-	.	.
16a	-stand	.	.
16g	_	.	.
4f	_	.	.
8r	.	.	.
[8dd	try	.	.
=20	=20	=20	=20
8dd]	_	1r	.
16cc	to	.	.
16b	un-	.	.
8a	-der-	.	.
16b	-stand	.	.
16a	_	.	.
4.g	_	.	.
8r	.	.	.
=21	=21	=21	=21
4cc	Try	1r	.
16cc	try	.	.
8.dd	_	.	.
32a	try	.	.
32g	_	.	.
8f	_	.	.
16f	to	.	.
8g	un-	.	.
8g	-der-	.	.
=22	=22	=22	=22
2g	-stand	1r	.
8r	.	.	.
16c	I'm	.	.
16c	a	.	.
8d	ma-	.	.
8c	-gic	.	.
=23	=23	=23	=23
4B-	man	1r	.
4r	.	.	.
2r	.	.	.
=24	=24	=24	=24
1r	.	1r	.
=25	=25	=25	=25
8d	Win-	1r	.
8a	-ter	.	.
8.a	nights	.	.
16d	we	.	.
8d	sang	.	.
8g	in	.	.
4g	tune	.	.
=26	=26	=26	=26
8d	Played	1r	.
8f	in-	.	.
8.f	-side	.	.
16d	the	.	.
8.d	moths	.	.
16G	of	.	.
8G	moon	.	.
8r	.	.	.
=27	=27	=27	=27
16c	Ne-	1r	.
16c	-ver	.	.
8c	think	.	.
8c	of	.	.
4d	ne-	.	.
8c	-ver	.	.
16r	.	.	.
8c	Let	.	.
[16c	this	.	.
=28	=28	=28	=28
8c]	_	1r	.
8a	spell	.	.
8g	last	.	.
8f	for-	.	.
16c	-e-	.	.
16c	-ver	.	.
8r	.	.	.
8r	.	.	.
8c	Well	.	.
=29	=29	=29	=29
16d	sum-	1r	.
8a	-mer	.	.
16a	lo-	.	.
8d	-ver	.	.
8d	passed	.	.
16d	to	.	.
8.g	fall	.	.
8r	.	.	.
[8d	Tried	.	.
=30	=30	=30	=30
8d]	_	1r	.
8f	to	.	.
16f	re-	.	.
16d	-a-	.	.
4d	-lize	.	.
16G	it	.	.
8.G	all	.	.
8r	.	.	.
=31	=31	=31	=31
16c	Ma-	1r	.
16c	-ma	.	.
8c	says	.	.
8c	she's	.	.
4d	wor-	.	.
8c	-ried	.	.
8r	.	.	.
16c	Grow-	.	.
16c	-ing	.	.
=32	=32	=32	=32
8a	up	1r	.
8g	in	.	.
8f	a	.	.
4f	hur-	.	.
8g	_	.	.
4a	-ry	.	.
=33	=33	=33	=33
8r	.	1r	.
16d	Yeah	.	.
8.c	_	.	.
8d	_	.	.
2r	.	.	.
=34	=34	=34	=34
1r	.	1r	.
=35	=35	=35	=35
8cc	Come	1r	.
8cc	on	.	.
8dd	_	.	.
4a	home	.	.
16a	girl	.	.
16g	_	.	.
8f	_	.	.
16g	ma-	.	.
16g	-ma	.	.
=36	=36	=36	=36
8r	.	1r	.
8d	cried	.	.
16d	on	.	.
16c	the	.	.
4.d	phone	.	.
8r	.	.	.
8d	To	.	.
=37	=37	=37	=37
8cc	soon	1r	.
16cc	to	.	.
8.cc	lose	.	.
8dd	my	.	.
8a	ba-	.	.
8g	-by	.	.
8f	and	.	.
8g	my	.	.
=38	=38	=38	=38
8.d	girl	1r	.
16d	should	.	.
16d	be	.	.
16c	at	.	.
16d	home	.	.
8.f	_	.	.
8r	.	.	.
8r	.	.	.
8c	But	.	.
=39	=39	=39	=39
16cc	try	1r	.
8b-	to	.	.
16a	un-	.	.
8g	-der-	.	.
8a	-stand	.	.
8a	_	.	.
8r	.	.	.
8r	.	.	.
[8dd	try	.	.
=40	=40	=40	=40
8dd]	_	1r	.
16cc	to	.	.
16b	un-	.	.
8a	-der-	.	.
16b	-stand	.	.
16a	_	.	.
4.g	_	.	.
8r	.	.	.
=41	=41	=41	=41
4cc	Try	1r	.
16cc	try	.	.
8.dd	_	.	.
32a	try	.	.
32g	_	.	.
8f	_	.	.
16f	to	.	.
8g	un-	.	.
8g	-der-	.	.
=42	=42	=42	=42
2g	-stand	1r	.
8r	.	.	.
16c	He's	.	.
16c	a	.	.
8d	ma-	.	.
8c	-gic	.	.
=43	=43	=43	=43
4B-	man	1r	.
8G	ma-	.	.
8G	-ma	.	.
4r	.	.	.
[4g	Ah	.	.
=44	=44	=44	=44
2g]	_	1r	.
16r	.	.	.
16c	He's	.	.
16c	a	.	.
8.d	ma-	.	.
8c	-gic	.	.
=45	=45	=45	=45
16B-	man	1r	.
8.G	_	.	.
4r	.	.	.
2r	.	.	.
=46	=46	=46	=46
1r	.	1r	.
=47	=47	=47	=47
1r	.	1r	.
=48	=48	=48	=48
1r	.	1r	.
=49	=49	=49	=49
1r	.	1r	.
=50	=50	=50	=50
1r	.	1r	.
=51	=51	=51	=51
8cc	Come	1r	.
8cc	on	.	.
8dd	_	.	.
4a	home	.	.
16a	girl	.	.
16g	_	.	.
8f	_	.	.
8g	he	.	.
=52	=52	=52	=52
8d	said	1r	.
16d	with	.	.
8.c	a	.	.
4.d	smile	.	.
8r	.	.	.
8d	I	.	.
=53	=53	=53	=53
8cc	cast	1r	.
8cc	my	.	.
16cc	spell	.	.
16dd	of	.	.
4a	love	.	.
8g	on	.	.
8f	you	.	.
8g	a	.	.
=54	=54	=54	=54
16d	wo-	1r	.
8.d	-man	.	.
16d	from	.	.
8c	a	.	.
16d	child	.	.
8f	_	.	.
8r	.	.	.
8r	.	.	.
8c	But	.	.
=55	=55	=55	=55
16cc	try	1r	.
8b-	to	.	.
16a	un-	.	.
8g	-der-	.	.
16a	-stand	.	.
16g	_	.	.
4f	_	.	.
8r	.	.	.
[8dd	try	.	.
=56	=56	=56	=56
8dd]	_	1r	.
16cc	to	.	.
16b	un-	.	.
8a	-der-	.	.
16b	-stand	.	.
16a	_	.	.
4g	_	.	.
4r	.	.	.
=57	=57	=57	=57
2.b	Oh	1r	.
8r	.	.	.
[8dd	Oh	.	.
=58	=58	=58	=58
4.dd]	_	1r	.
8b	oh	.	.
8a	_	.	.
4g	_	.	.
8r	.	.	.
=59	=59	=59	=59
4.cc	Try	1r	.
8dd	_	.	.
16a	_	.	.
16g	_	.	.
4f	_	.	.
[8dd	try	.	.
=60	=60	=60	=60
16dd]	_	1r	.
16dd	_	.	.
16cc	to	.	.
16b	un-	.	.
8a	-der-	.	.
16b	-stand	.	.
16a	_	.	.
4g	_	.	.
4r	.	.	.
=61	=61	=61	=61
4cc	Try	1r	.
16cc	try	.	.
8.dd	_	.	.
32a	try	.	.
32g	_	.	.
8f	_	.	.
16f	to	.	.
8g	un-	.	.
8g	-der-	.	.
=62	=62	=62	=62
2g	-stand	1r	.
8r	.	.	.
16g	He's	.	.
16g	a	.	.
[4b-	ma-	.	.
=63	=63	=63	=63
4.b-]	_	1r	.
8cc	-giv	.	.
16g	man	.	.
[4..f	_	.	.
=64	=64	=64	=64
2f]	_	[1g	Ooh
16g	Oh	.	.
16f	_	.	.
8d-	_	.	.
4c	_	.	.
=65	=65	=65	=65
16B-	yeah	1g_	_
8.G	_	.	.
4r	.	.	.
2r	.	.	.
=66	=66	=66	=66
1r	.	4.g]	_
.	.	8g	you
.	.	8g	got
.	.	16d-	the
.	.	8.d-	ma-
.	.	8c	-gic
=67	=67	=67	=67
1r	.	16B-	hands
.	.	4..G	_
.	.	2r	.
=68	=68	=68	=68
1r	.	1r	.
=69	=69	=69	=69
1r	.	1r	.
=70	=70	=70	=70
1r	.	1r	.
=71	=71	=71	=71
1r	.	1r	.
=72	=72	=72	=72
1r	.	1r	.
=73	=73	=73	=73
1r	.	1r	.
=74	=74	=74	=74
1r	.	1r	.
=75	=75	=75	=75
1r	.	1r	.
=76	=76	=76	=76
1r	.	1r	.
=77	=77	=77	=77
1r	.	1r	.
=78	=78	=78	=78
1r	.	1r	.
=79	=79	=79	=79
1r	.	1r	.
=80	=80	=80	=80
1r	.	1r	.
=81	=81	=81	=81
*M2/4	*	*M2/4	*
2r	.	2r	.
=82	=82	=82	=82
*M4/4	*	*M4/4	*
1r	.	1r	.
=83	=83	=83	=83
1r	.	1r	.
=84	=84	=84	=84
1r	.	1r	.
=85	=85	=85	=85
1r	.	1r	.
=86	=86	=86	=86
1r	.	1r	.
=87	=87	=87	=87
1r	.	1r	.
=88	=88	=88	=88
1r	.	1r	.
=89	=89	=89	=89
1r	.	1r	.
=90	=90	=90	=90
1r	.	1r	.
=91	=91	=91	=91
1r	.	1r	.
=92	=92	=92	=92
1r	.	1r	.
=93	=93	=93	=93
1r	.	1r	.
=94	=94	=94	=94
1r	.	1r	.
=95	=95	=95	=95
1r	.	1r	.
=96	=96	=96	=96
1r	.	1r	.
=97	=97	=97	=97
1r	.	1r	.
=98	=98	=98	=98
*M2/4	*	*M2/4	*
2r	.	2r	.
=99	=99	=99	=99
*M4/4	*	*M4/4	*
1r	.	1r	.
=100	=100	=100	=100
1r	.	1r	.
=101	=101	=101	=101
1r	.	1r	.
=102	=102	=102	=102
1r	.	1r	.
=103	=103	=103	=103
1r	.	1r	.
=104	=104	=104	=104
1r	.	1r	.
=105	=105	=105	=105
1r	.	1r	.
=106	=106	=106	=106
1r	.	1r	.
=107	=107	=107	=107
1r	.	1r	.
=108	=108	=108	=108
1r	.	1r	.
=109	=109	=109	=109
[1a	Ah	1r	.
=110	=110	=110	=110
2a]	_	1r	.
8a	Ah	.	.
8g	_	.	.
8f	_	.	.
[8g	_	.	.
=111	=111	=111	=111
4.g]	_	1r	.
[8f	_	.	.
2f]	_	.	.
=112	=112	=112	=112
1r	.	1r	.
=113	=113	=113	=113
[1a	Ah	1r	.
=114	=114	=114	=114
2a]	_	1r	.
8a	Ah	.	.
8g	_	.	.
8f	_	.	.
[8g	_	.	.
=115	=115	=115	=115
4.g]	_	1r	.
[8f	_	.	.
2f]	_	.	.
=116	=116	=116	=116
1r	.	1r	.
=117	=117	=117	=117
[1a	Ah	1r	.
=118	=118	=118	=118
2a]	_	1r	.
8a	Ah	.	.
8g	_	.	.
8f	_	.	.
[8g	_	.	.
=119	=119	=119	=119
4.g]	_	1r	.
[8f	_	.	.
2f]	_	.	.
=120	=120	=120	=120
1r	.	1r	.
=121	=121	=121	=121
[1a	Ah	1r	.
=122	=122	=122	=122
2a]	_	1r	.
8a	Ah	.	.
8g	_	.	.
8f	_	.	.
[8g	_	.	.
=123	=123	=123	=123
4.g]	_	1r	.
[8f	_	.	.
2f]	_	.	.
=124	=124	=124	=124
1r	.	1r	.
=125	=125	=125	=125
1r	.	1r	.
=126	=126	=126	=126
1r	.	1r	.
=127	=127	=127	=127
*M2/4	*	*M2/4	*
2r	.	2r	.
=128	=128	=128	=128
*M4/4	*	*M4/4	*
1r	.	1r	.
=129	=129	=129	=129
1r	.	1r	.
=130	=130	=130	=130
1r	.	1r	.
=131	=131	=131	=131
1r	.	1r	.
=132	=132	=132	=132
8cc	Come	1r	.
8cc	on	.	.
8dd	_	.	.
4a	home	.	.
16a	girl	.	.
16g	_	.	.
8f	_	.	.
8g	he	.	.
=133	=133	=133	=133
8d	said	1r	.
16d	with	.	.
8.c	a	.	.
4.d	smile	.	.
4r	.	.	.
=134	=134	=134	=134
16cc	You	1r	.
8.cc	don't	.	.
8cc	have	.	.
16dd	to	.	.
8.a	love	.	.
8g	me	.	.
8f	yet	.	.
[8g	let's	.	.
=135	=135	=135	=135
16g]	_	1r	.
16c	get	.	.
16d	high	.	.
8.c	a	.	.
16d	while	.	.
8.f	_	.	.
8r	.	.	.
8r	.	.	.
8c	But	.	.
=136	=136	=136	=136
16cc	try	1r	.
8b-	to	.	.
16a	un-	.	.
8g	-der-	.	.
16a	-stand	.	.
16g	_	.	.
4f	_	.	.
8r	.	.	.
[8dd	try	.	.
=137	=137	=137	=137
8dd]	_	1r	.
16cc	to	.	.
16b	un-	.	.
8a	-der-	.	.
16b	-stand	.	.
16a	_	.	.
4.g	_	.	.
8r	.	.	.
=138	=138	=138	=138
4cc	Try	1r	.
16cc	try	.	.
8.dd	_	.	.
32a	try	.	.
32g	_	.	.
8f	_	.	.
16f	to	.	.
8g	un-	.	.
8g	-der-	.	.
=139	=139	=139	=139
2g	-stand	1r	.
8r	.	.	.
16g	He's	.	.
16g	a	.	.
8g	ma-	.	.
8g	-gic	.	.
=140	=140	=140	=140
4.b-	man	1r	.
4.cc	_	.	.
4r	.	.	.
=141	=141	=141	=141
8dd	Oh	1r	.
8cc	_	.	.
8b-	_	.	.
16g	_	.	.
[16f	_	.	.
4f]	_	.	.
4r	.	.	.
=142	=142	=142	=142
4.b-	Oh	1r	.
[4.cc	_	.	.
4cc]	_	.	.
=143	=143	=143	=143
1r	.	1r	.
*-	*-	*-	*-
!!!ENC: Nathaniel Condit-Schultz